X:408
T: VIER ELEMENTE INNIG GESELLT
N: F0749
O: Europa, Mitteleuropa, Deutschland
R: Geselligkeits -, Trink - Lied
M: 3/8
L: 1/16
K: F
 | F2F2F2 | A3GF2 |
c3dcB | A4z2 |
G2A=Bcd | e3dc2 |
edc2=B2 | c4z2 |
d2cBAG | c3AF2 |
AGF2E2 | F4z2

@@@ Tune index: 5839
